korla/apps/symbolic/preferences-desktop-screensaver-symbolic.svg

<svg style="clip-rule:evenodd;fill-rule:evenodd;stroke-linejoin:round;stroke-miterlimit:2" version="1.1" viewBox="0 0 16 16" xmlns="http://www.w3.org/2000/svg">
 <path d="m10.48 4.69c0.32 0.39 0.52 0.89 0.52 1.43 0 1.25-1.01 2.26-2.26 2.26-0.54 0-1.04-0.2-1.43-0.52 0.28 1.16 1.32 2.02 2.56 2.02 1.45 0 2.63-1.18 2.63-2.63 0-1.24-0.86-2.29-2.02-2.56z" style="fill-rule:nonzero;fill:rgb(223,223,223)"/>
 <path d="M5.5,7.5L5,6L3.5,5.5L5,5L5.5,3.5L6,5L7.5,5.5L6,6L5.5,7.5Z" style="fill-rule:nonzero;fill:rgb(223,223,223)"/>
 <rect x="3" y="14.385" width="10" height="1.615" style="fill-opacity:.5;fill:rgb(223,223,223)"/>
 <path d="m2 0c-2 0-2 2-2 2v9s0 2 2 2h12s2 0 2-2v-9s0-2-2-2h-12zm-1.026 0.834h14.052v11.332h-14.052v-11.332z" style="fill:rgb(223,223,223)"/>
 <path d="m8 3.5c0 0.274-0.226 0.5-0.5 0.5s-0.5-0.226-0.5-0.5 0.226-0.5 0.5-0.5 0.5 0.226 0.5 0.5z" style="fill-rule:nonzero;fill:rgb(223,223,223)"/>
 <path d="m13 3.5c0 0.274-0.226 0.5-0.5 0.5s-0.5-0.226-0.5-0.5 0.226-0.5 0.5-0.5 0.5 0.226 0.5 0.5z" style="fill-rule:nonzero;fill:rgb(223,223,223)"/>
 <path d="m9 5.5c0 0.274-0.226 0.5-0.5 0.5s-0.5-0.226-0.5-0.5 0.226-0.5 0.5-0.5 0.5 0.226 0.5 0.5z" style="fill-rule:nonzero;fill:rgb(223,223,223)"/>
 <path d="m5 8.5c0 0.274-0.226 0.5-0.5 0.5s-0.5-0.226-0.5-0.5 0.226-0.5 0.5-0.5 0.5 0.226 0.5 0.5z" style="fill-rule:nonzero;fill:rgb(223,223,223)"/>
</svg>

<svg xmlns="http://www.w3.org/2000/svg" width="16" height="16" version="1.1">
 <path style="fill:#dfdfdf" d="M 10.48,4.69 C 10.8,5.08 11,5.58 11,6.12 11,7.37 9.99,8.38 8.74,8.38 8.2,8.38 7.7,8.18 7.31,7.86 7.59,9.02 8.63,9.88 9.87,9.88 11.32,9.88 12.5,8.7 12.5,7.25 12.5,6.01 11.64,4.96 10.48,4.69 Z"/>
 <path style="fill:#dfdfdf" d="M 5.5,7.5 5,6 3.5,5.5 5,5 5.5,3.5 6,5 7.5,5.5 6,6 Z"/>
 <path style="fill:#dfdfdf" d="M 2,0 C 0,0 0,2 0,2 V 11 C 0,11 0,13 2,13 H 14 C 14,13 16,13 16,11 V 2 C 16,2 16,0 14,0 Z M 2,2 H 14 V 11 H 2 Z M 3,15 V 16 H 13 V 15 C 13,14 12,14 12,14 H 4 C 4,14 3,14 3,15 Z"/>
 <path style="fill:#dfdfdf" d="M 8,3.5 A 0.5,0.5 0 0 1 7.5,4 0.5,0.5 0 0 1 7,3.5 0.5,0.5 0 0 1 7.5,3 0.5,0.5 0 0 1 8,3.5 Z"/>
 <path style="fill:#dfdfdf" d="M 13,3.5 A 0.5,0.5 0 0 1 12.5,4 0.5,0.5 0 0 1 12,3.5 0.5,0.5 0 0 1 12.5,3 0.5,0.5 0 0 1 13,3.5 Z"/>
 <path style="fill:#dfdfdf" d="M 9,5.5 A 0.5,0.5 0 0 1 8.5,6 0.5,0.5 0 0 1 8,5.5 0.5,0.5 0 0 1 8.5,5 0.5,0.5 0 0 1 9,5.5 Z"/>
 <path style="fill:#dfdfdf" d="M 5,8.5 A 0.5,0.5 0 0 1 4.5,9 0.5,0.5 0 0 1 4,8.5 0.5,0.5 0 0 1 4.5,8 0.5,0.5 0 0 1 5,8.5 Z"/>
</svg>
